Newaita-dark/devices/24/cpu.svg

<?xml version="1.0" encoding="UTF-8"?>
<svg xmlns="http://www.w3.org/2000/svg" xmlns:xlink="http://www.w3.org/1999/xlink" width="24pt" height="24pt" viewBox="0 0 24 24" version="1.1">
<defs>
<linearGradient id="linear0" gradientUnits="userSpaceOnUse" x1="254" y1="233.5" x2="254" y2="254.666672" gradientTransform="matrix(0.0468795,0,0,0.0468795,-0.0000028613,8.590665)">
<stop offset="0" style="stop-color:rgb(0%,0%,0%);stop-opacity:0.27451;"/>
<stop offset="1" style="stop-color:rgb(0%,0%,0%);stop-opacity:0;"/>
</linearGradient>
<radialGradient id="radial0" gradientUnits="userSpaceOnUse" cx="450.908936" cy="189.579361" fx="450.908936" fy="189.579361" r="21.166656" gradientTransform="matrix(0.000000130628,-0.0585994,-0.105479,-0.0000000761539,39.842197,46.208076)">
<stop offset="0" style="stop-color:rgb(0%,0%,0%);stop-opacity:0.313725;"/>
<stop offset="0.222222" style="stop-color:rgb(0%,0%,0%);stop-opacity:0.27451;"/>
<stop offset="1" style="stop-color:rgb(0%,0%,0%);stop-opacity:0;"/>
</radialGradient>
<radialGradient id="radial1" gradientUnits="userSpaceOnUse" cx="450.908936" cy="189.579361" fx="450.908936" fy="189.579361" r="21.166656" gradientTransform="matrix(-0.000000130628,0.0585994,0.105479,0.0000000761539,-15.90339,-7.134033)">
<stop offset="0" style="stop-color:rgb(0%,0%,0%);stop-opacity:0.313725;"/>
<stop offset="0.222222" style="stop-color:rgb(0%,0%,0%);stop-opacity:0.27451;"/>
<stop offset="1" style="stop-color:rgb(0%,0%,0%);stop-opacity:0;"/>
</radialGradient>
<radialGradient id="radial2" gradientUnits="userSpaceOnUse" cx="450.908936" cy="189.579361" fx="450.908936" fy="189.579361" r="21.166656" gradientTransform="matrix(-0.000000130628,-0.0585994,0.105479,-0.0000000761539,-15.90339,46.208076)">
<stop offset="0" style="stop-color:rgb(0%,0%,0%);stop-opacity:0.313725;"/>
<stop offset="0.222222" style="stop-color:rgb(0%,0%,0%);stop-opacity:0.27451;"/>
<stop offset="1" style="stop-color:rgb(0%,0%,0%);stop-opacity:0;"/>
</radialGradient>
<radialGradient id="radial3" gradientUnits="userSpaceOnUse" cx="450.908936" cy="189.579361" fx="450.908936" fy="189.579361" r="21.166656" gradientTransform="matrix(0.000000130628,0.0585994,-0.105479,0.0000000761539,39.842196,-7.134033)">
<stop offset="0" style="stop-color:rgb(0%,0%,0%);stop-opacity:0.313725;"/>
<stop offset="0.222222" style="stop-color:rgb(0%,0%,0%);stop-opacity:0.27451;"/>
<stop offset="1" style="stop-color:rgb(0%,0%,0%);stop-opacity:0;"/>
</radialGradient>
<linearGradient id="linear1" gradientUnits="userSpaceOnUse" x1="116.416656" y1="233.5" x2="116.416656" y2="-168.666656" gradientTransform="matrix(3.779528,0,0,3.779528,-79.999985,812.59845)">
<stop offset="0" style="stop-color:rgb(61.960784%,61.960784%,61.960784%);stop-opacity:1;"/>
<stop offset="1" style="stop-color:rgb(74.117647%,74.117647%,74.117647%);stop-opacity:1;"/>
</linearGradient>
<linearGradient id="linear2" gradientUnits="userSpaceOnUse" x1="254" y1="212.333328" x2="254" y2="-147.5" gradientTransform="matrix(0.0468795,0,0,0.0468795,0,10.079087)">
<stop offset="0" style="stop-color:rgb(25.882353%,25.882353%,25.882353%);stop-opacity:1;"/>
<stop offset="1" style="stop-color:rgb(38.039216%,38.039216%,38.039216%);stop-opacity:1;"/>
</linearGradient>
</defs>
<g id="surface1">
<path style=" stroke:none;fill-rule:nonzero;fill:url(#linear0);" d="M 3.84375 19.535156 L 20.09375 19.535156 L 20.09375 20.53125 L 3.84375 20.53125 Z M 3.84375 19.535156 "/>
<path style=" stroke:none;fill-rule:nonzero;fill:url(#radial0);" d="M 20.09375 19.535156 L 22.078125 19.535156 L 22.078125 18.542969 L 20.09375 18.542969 Z M 20.09375 19.535156 "/>
<path style=" stroke:none;fill-rule:nonzero;fill:url(#radial1);" d="M 3.84375 19.535156 L 1.859375 19.535156 L 1.859375 20.53125 L 3.84375 20.53125 Z M 3.84375 19.535156 "/>
<path style=" stroke:none;fill-rule:nonzero;fill:url(#radial2);" d="M 3.84375 19.535156 L 1.859375 19.535156 L 1.859375 18.542969 L 3.84375 18.542969 Z M 3.84375 19.535156 "/>
<path style=" stroke:none;fill-rule:nonzero;fill:url(#radial3);" d="M 20.09375 19.535156 L 22.078125 19.535156 L 22.078125 20.53125 L 20.09375 20.53125 Z M 20.09375 19.535156 "/>
<path style="fill-rule:nonzero;fill:url(#linear1);stroke-width:11.338583;stroke-linecap:round;stroke-linejoin:round;stroke:rgb(20%,20%,20%);stroke-opacity:1;stroke-miterlimit:4;" d="M 359.965644 175.101398 C 337.920504 175.101398 319.969461 193.052441 319.969461 215.097581 L 319.969461 255.093763 C 319.969461 277.138903 337.920504 295.089946 359.965644 295.089946 C 382.010784 295.089946 399.961827 277.138903 399.961827 255.093763 L 399.961827 215.097581 C 399.961827 193.052441 382.010784 175.101398 359.965644 175.101398 Z M 559.946557 175.101398 C 537.901417 175.101398 519.950375 193.052441 519.950375 215.097581 L 519.950375 255.093763 C 519.950375 277.138903 537.901417 295.089946 559.946557 295.089946 C 582.306628 295.089946 599.94274 277.138903 599.94274 255.093763 L 599.94274 215.097581 C 599.94274 193.052441 582.306628 175.101398 559.946557 175.101398 Z M 759.927471 175.101398 C 737.88233 175.101398 719.931288 193.052441 719.931288 215.097581 L 719.931288 255.093763 C 719.931288 277.138903 737.88233 295.089946 759.927471 295.089946 C 782.287541 295.089946 799.923653 277.138903 799.923653 255.093763 L 799.923653 215.097581 C 799.923653 193.052441 782.287541 175.101398 759.927471 175.101398 Z M 959.908384 175.101398 C 937.863244 175.101398 919.912201 193.052441 919.912201 215.097581 L 919.912201 255.093763 C 919.912201 277.138903 937.863244 295.089946 959.908384 295.089946 C 982.268454 295.089946 999.904566 277.138903 999.904566 255.093763 L 999.904566 215.097581 C 999.904566 193.052441 982.268454 175.101398 959.908384 175.101398 Z M 1159.889297 175.101398 C 1137.844157 175.101398 1119.893114 193.052441 1119.893114 215.097581 L 1119.893114 255.093763 C 1119.893114 277.138903 1137.844157 295.089946 1159.889297 295.089946 C 1182.249368 295.089946 1199.88548 277.138903 1199.88548 255.093763 L 1199.88548 215.097581 C 1199.88548 193.052441 1182.249368 175.101398 1159.889297 175.101398 Z M 1359.87021 175.101398 C 1337.82507 175.101398 1319.874028 193.052441 1319.874028 215.097581 L 1319.874028 255.093763 C 1319.874028 277.138903 1337.82507 295.089946 1359.87021 295.089946 C 1382.230281 295.089946 1399.866393 277.138903 1399.866393 255.093763 L 1399.866393 215.097581 C 1399.866393 193.052441 1382.230281 175.101398 1359.87021 175.101398 Z M 1559.851124 175.101398 C 1537.805984 175.101398 1519.854941 193.052441 1519.854941 215.097581 L 1519.854941 255.093763 C 1519.854941 277.138903 1537.805984 295.089946 1559.851124 295.089946 C 1582.211194 295.089946 1599.847306 277.138903 1599.847306 255.093763 L 1599.847306 215.097581 C 1599.847306 193.052441 1582.211194 175.101398 1559.851124 175.101398 Z M 239.977096 295.089946 C 217.931956 295.089946 199.980913 313.040989 199.980913 335.086129 C 199.980913 357.131269 217.931956 375.082311 239.977096 375.082311 L 279.973279 375.082311 C 302.018419 375.082311 319.969461 357.131269 319.969461 335.086129 C 319.969461 313.040989 302.018419 295.089946 279.973279 295.089946 Z M 1639.843489 295.089946 C 1617.798349 295.089946 1599.847306 313.040989 1599.847306 335.086129 C 1599.847306 357.131269 1617.798349 375.082311 1639.843489 375.082311 L 1680.154602 375.082311 C 1702.199742 375.082311 1720.150785 357.131269 1720.150785 335.086129 C 1720.150785 313.040989 1702.199742 295.089946 1680.154602 295.089946 Z M 239.977096 495.070859 C 217.931956 495.070859 199.980913 513.021902 199.980913 535.067042 C 199.980913 557.427113 217.931956 575.063225 239.977096 575.063225 L 279.973279 575.063225 C 302.018419 575.063225 319.969461 557.427113 319.969461 535.067042 C 319.969461 513.021902 302.018419 495.070859 279.973279 495.070859 Z M 1639.843489 495.070859 C 1617.798349 495.070859 1599.847306 513.021902 1599.847306 535.067042 C 1599.847306 557.427113 1617.798349 575.063225 1639.843489 575.063225 L 1680.154602 575.063225 C 1702.199742 575.063225 1720.150785 557.427113 1720.150785 535.067042 C 1720.150785 513.021902 1702.199742 495.070859 1680.154602 495.070859 Z M 239.977096 695.051773 C 217.931956 695.051773 199.980913 713.002815 199.980913 735.047955 C 199.980913 757.408026 217.931956 775.044138 239.977096 775.044138 L 279.973279 775.044138 C 302.018419 775.044138 319.969461 757.408026 319.969461 735.047955 C 319.969461 713.002815 302.018419 695.051773 279.973279 695.051773 Z M 1639.843489 695.051773 C 1617.798349 695.051773 1599.847306 713.002815 1599.847306 735.047955 C 1599.847306 757.408026 1617.798349 775.044138 1639.843489 775.044138 L 1680.154602 775.044138 C 1702.199742 775.044138 1720.150785 757.408026 1720.150785 735.047955 C 1720.150785 713.002815 1702.199742 695.051773 1680.154602 695.051773 Z M 239.977096 895.032686 C 217.931956 895.032686 199.980913 912.983729 199.980913 935.028869 C 199.980913 957.388939 217.931956 975.025051 239.977096 975.025051 L 279.973279 975.025051 C 302.018419 975.025051 319.969461 957.388939 319.969461 935.028869 C 319.969461 912.983729 302.018419 895.032686 279.973279 895.032686 Z M 1639.843489 895.032686 C 1617.798349 895.032686 1599.847306 912.983729 1599.847306 935.028869 C 1599.847306 957.388939 1617.798349 975.025051 1639.843489 975.025051 L 1680.154602 975.025051 C 1702.199742 975.025051 1720.150785 957.388939 1720.150785 935.028869 C 1720.150785 912.983729 1702.199742 895.032686 1680.154602 895.032686 Z M 239.977096 1095.013599 C 217.931956 1095.013599 199.980913 1112.964642 199.980913 1135.009782 C 199.980913 1157.369853 217.931956 1175.005965 239.977096 1175.005965 L 279.973279 1175.005965 C 302.018419 1175.005965 319.969461 1157.369853 319.969461 1135.009782 C 319.969461 1112.964642 302.018419 1095.013599 279.973279 1095.013599 Z M 1639.843489 1095.013599 C 1617.798349 1095.013599 1599.847306 1112.964642 1599.847306 1135.009782 C 1599.847306 1157.369853 1617.798349 1175.005965 1639.843489 1175.005965 L 1680.154602 1175.005965 C 1702.199742 1175.005965 1720.150785 1157.369853 1720.150785 1135.009782 C 1720.150785 1112.964642 1702.199742 1095.013599 1680.154602 1095.013599 Z M 239.977096 1294.994513 C 217.931956 1294.994513 199.980913 1312.945555 199.980913 1334.990695 C 199.980913 1357.350766 217.931956 1374.986878 239.977096 1374.986878 L 279.973279 1374.986878 C 302.018419 1374.986878 319.969461 1357.350766 319.969461 1334.990695 C 319.969461 1312.945555 302.018419 1294.994513 279.973279 1294.994513 Z M 1639.843489 1294.994513 C 1617.798349 1294.994513 1599.847306 1312.945555 1599.847306 1334.990695 C 1599.847306 1357.350766 1617.798349 1374.986878 1639.843489 1374.986878 L 1680.154602 1374.986878 C 1702.199742 1374.986878 1720.150785 1357.350766 1720.150785 1334.990695 C 1720.150785 1312.945555 1702.199742 1294.994513 1680.154602 1294.994513 Z M 239.977096 1494.975426 C 217.931956 1494.975426 199.980913 1512.926468 199.980913 1534.971608 C 199.980913 1557.331679 217.931956 1574.967791 239.977096 1574.967791 L 279.973279 1574.967791 C 302.018419 1574.967791 319.969461 1557.331679 319.969461 1534.971608 C 319.969461 1512.926468 302.018419 1494.975426 279.973279 1494.975426 Z M 1639.843489 1494.975426 C 1617.798349 1494.975426 1599.847306 1512.926468 1599.847306 1534.971608 C 1599.847306 1557.331679 1617.798349 1574.967791 1639.843489 1574.967791 L 1680.154602 1574.967791 C 1702.199742 1574.967791 1720.150785 1557.331679 1720.150785 1534.971608 C 1720.150785 1512.926468 1702.199742 1494.975426 1680.154602 1494.975426 Z M 359.965644 1574.967791 C 337.920504 1574.967791 319.969461 1592.918834 319.969461 1614.963974 L 319.969461 1655.275087 C 319.969461 1677.320227 337.920504 1695.27127 359.965644 1695.27127 C 382.010784 1695.27127 399.961827 1677.320227 399.961827 1655.275087 L 399.961827 1614.963974 C 399.961827 1592.918834 382.010784 1574.967791 359.965644 1574.967791 Z M 559.946557 1574.967791 C 537.901417 1574.967791 519.950375 1592.918834 519.950375 1614.963974 L 519.950375 1655.275087 C 519.950375 1677.320227 537.901417 1695.27127 559.946557 1695.27127 C 582.306628 1695.27127 599.94274 1677.320227 599.94274 1655.275087 L 599.94274 1614.963974 C 599.94274 1592.918834 582.306628 1574.967791 559.946557 1574.967791 Z M 759.927471 1574.967791 C 737.88233 1574.967791 719.931288 1592.918834 719.931288 1614.963974 L 719.931288 1655.275087 C 719.931288 1677.320227 737.88233 1695.27127 759.927471 1695.27127 C 782.287541 1695.27127 799.923653 1677.320227 799.923653 1655.275087 L 799.923653 1614.963974 C 799.923653 1592.918834 782.287541 1574.967791 759.927471 1574.967791 Z M 959.908384 1574.967791 C 937.863244 1574.967791 919.912201 1592.918834 919.912201 1614.963974 L 919.912201 1655.275087 C 919.912201 1677.320227 937.863244 1695.27127 959.908384 1695.27127 C 982.268454 1695.27127 999.904566 1677.320227 999.904566 1655.275087 L 999.904566 1614.963974 C 999.904566 1592.918834 982.268454 1574.967791 959.908384 1574.967791 Z M 1159.889297 1574.967791 C 1137.844157 1574.967791 1119.893114 1592.918834 1119.893114 1614.963974 L 1119.893114 1655.275087 C 1119.893114 1677.320227 1137.844157 1695.27127 1159.889297 1695.27127 C 1182.249368 1695.27127 1199.88548 1677.320227 1199.88548 1655.275087 L 1199.88548 1614.963974 C 1199.88548 1592.918834 1182.249368 1574.967791 1159.889297 1574.967791 Z M 1359.87021 1574.967791 C 1337.82507 1574.967791 1319.874028 1592.918834 1319.874028 1614.963974 L 1319.874028 1655.275087 C 1319.874028 1677.320227 1337.82507 1695.27127 1359.87021 1695.27127 C 1382.230281 1695.27127 1399.866393 1677.320227 1399.866393 1655.275087 L 1399.866393 1614.963974 C 1399.866393 1592.918834 1382.230281 1574.967791 1359.87021 1574.967791 Z M 1559.851124 1574.967791 C 1537.805984 1574.967791 1519.854941 1592.918834 1519.854941 1614.963974 L 1519.854941 1655.275087 C 1519.854941 1677.320227 1537.805984 1695.27127 1559.851124 1695.27127 C 1582.211194 1695.27127 1599.847306 1677.320227 1599.847306 1655.275087 L 1599.847306 1614.963974 C 1599.847306 1592.918834 1582.211194 1574.967791 1559.851124 1574.967791 Z M 1559.851124 1574.967791 " transform="matrix(0.0124035,0,0,0.0124035,0,0)"/>
<path style=" stroke:none;fill-rule:nonzero;fill:url(#linear2);" d="M 4.21875 3.164062 L 19.597656 3.164062 C 20.007812 3.164062 20.339844 3.496094 20.339844 3.910156 L 20.339844 19.289062 C 20.339844 19.699219 20.007812 20.03125 19.597656 20.03125 L 4.21875 20.03125 C 3.804688 20.03125 3.472656 19.699219 3.472656 19.289062 L 3.472656 3.910156 C 3.472656 3.496094 3.804688 3.164062 4.21875 3.164062 Z M 4.21875 3.164062 "/>
<path style=" stroke:none;fill-rule:nonzero;fill:rgb(100%,100%,100%);fill-opacity:0.392157;" d="M 4.21875 3.164062 C 3.804688 3.164062 3.472656 3.496094 3.472656 3.910156 L 3.472656 4.15625 C 3.472656 3.746094 3.804688 3.414062 4.21875 3.414062 L 19.597656 3.414062 C 20.011719 3.414062 20.339844 3.746094 20.339844 4.15625 L 20.339844 3.910156 C 20.339844 3.496094 20.011719 3.164062 19.597656 3.164062 Z M 4.21875 3.164062 "/>
<path style=" stroke:none;fill-rule:nonzero;fill:rgb(0%,0%,0%);fill-opacity:0.235294;" d="M 4.21875 20.03125 C 3.804688 20.03125 3.472656 19.703125 3.472656 19.289062 L 3.472656 19.039062 C 3.472656 19.453125 3.804688 19.785156 4.21875 19.785156 L 19.597656 19.785156 C 20.011719 19.785156 20.339844 19.453125 20.339844 19.039062 L 20.339844 19.289062 C 20.339844 19.703125 20.011719 20.03125 19.597656 20.03125 Z M 4.21875 20.03125 "/>
<path style=" stroke:none;fill-rule:nonzero;fill:rgb(20%,20%,20%);fill-opacity:1;" d="M 4.21875 3.09375 C 3.765625 3.09375 3.402344 3.457031 3.402344 3.910156 L 3.402344 19.289062 C 3.402344 19.738281 3.765625 20.101562 4.21875 20.101562 L 19.597656 20.101562 C 20.046875 20.101562 20.410156 19.738281 20.410156 19.289062 L 20.410156 3.910156 C 20.410156 3.457031 20.046875 3.09375 19.597656 3.09375 Z M 4.21875 3.234375 L 19.597656 3.234375 C 19.972656 3.234375 20.269531 3.535156 20.269531 3.910156 L 20.269531 19.289062 C 20.269531 19.664062 19.972656 19.960938 19.597656 19.960938 L 4.21875 19.960938 C 3.84375 19.960938 3.542969 19.664062 3.542969 19.289062 L 3.542969 3.910156 C 3.542969 3.535156 3.84375 3.234375 4.21875 3.234375 Z M 4.21875 3.234375 "/>
</g>
</svg>

<svg xmlns="http://www.w3.org/2000/svg" width="32" height="32" viewBox="0 0 24 24"><defs><linearGradient id="a" gradientUnits="userSpaceOnUse" x1="254" y1="233.5" x2="254" y2="254.667" gradientTransform="matrix(.04688 0 0 .04688 0 8.59)"><stop offset="0" stop-opacity=".275"/><stop offset="1" stop-opacity="0"/></linearGradient><radialGradient id="b" gradientUnits="userSpaceOnUse" cx="450.909" cy="189.579" fx="450.909" fy="189.579" r="21.167" gradientTransform="matrix(0 -.0586 -.10548 0 39.842 46.208)"><stop offset="0" stop-opacity=".314"/><stop offset=".222" stop-opacity=".275"/><stop offset="1" stop-opacity="0"/></radialGradient><radialGradient id="c" gradientUnits="userSpaceOnUse" cx="450.909" cy="189.579" fx="450.909" fy="189.579" r="21.167" gradientTransform="matrix(0 .0586 .10548 0 -15.903 -7.134)"><stop offset="0" stop-opacity=".314"/><stop offset=".222" stop-opacity=".275"/><stop offset="1" stop-opacity="0"/></radialGradient><radialGradient id="d" gradientUnits="userSpaceOnUse" cx="450.909" cy="189.579" fx="450.909" fy="189.579" r="21.167" gradientTransform="matrix(0 -.0586 .10548 0 -15.903 46.208)"><stop offset="0" stop-opacity=".314"/><stop offset=".222" stop-opacity=".275"/><stop offset="1" stop-opacity="0"/></radialGradient><radialGradient id="e" gradientUnits="userSpaceOnUse" cx="450.909" cy="189.579" fx="450.909" fy="189.579" r="21.167" gradientTransform="matrix(0 .0586 -.10548 0 39.842 -7.134)"><stop offset="0" stop-opacity=".314"/><stop offset=".222" stop-opacity=".275"/><stop offset="1" stop-opacity="0"/></radialGradient><linearGradient id="f" gradientUnits="userSpaceOnUse" x1="116.417" y1="233.5" x2="116.417" y2="-168.667" gradientTransform="matrix(3.77953 0 0 3.77953 -80 812.598)"><stop offset="0" stop-color="#9e9e9e"/><stop offset="1" stop-color="#bdbdbd"/></linearGradient><linearGradient id="g" gradientUnits="userSpaceOnUse" x1="254" y1="212.333" x2="254" y2="-147.5" gradientTransform="matrix(.04688 0 0 .04688 0 10.08)"><stop offset="0" stop-color="#424242"/><stop offset="1" stop-color="#616161"/></linearGradient></defs><path d="M3.844 19.535h16.25v.996H3.844zm0 0" fill="url(#a)"/><path d="M20.094 19.535h1.984v-.992h-1.984zm0 0" fill="url(#b)"/><path d="M3.844 19.535H1.859v.996h1.985zm0 0" fill="url(#c)"/><path d="M3.844 19.535H1.859v-.992h1.985zm0 0" fill="url(#d)"/><path d="M20.094 19.535h1.984v.996h-1.984zm0 0" fill="url(#e)"/><path d="M359.966 175.101c-22.045 0-39.997 17.951-39.997 39.997v39.996c0 22.045 17.952 39.996 39.997 39.996 22.045 0 39.996-17.951 39.996-39.996v-39.996c0-22.046-17.951-39.997-39.996-39.997zm199.98 0c-22.045 0-39.996 17.951-39.996 39.997v39.996c0 22.045 17.951 39.996 39.997 39.996 22.36 0 39.996-17.951 39.996-39.996v-39.996c0-22.046-17.636-39.997-39.996-39.997zm199.981 0c-22.045 0-39.996 17.951-39.996 39.997v39.996c0 22.045 17.951 39.996 39.996 39.996 22.36 0 39.997-17.951 39.997-39.996v-39.996c0-22.046-17.636-39.997-39.997-39.997zm199.981 0c-22.045 0-39.996 17.951-39.996 39.997v39.996c0 22.045 17.951 39.996 39.996 39.996 22.36 0 39.997-17.951 39.997-39.996v-39.996c0-22.046-17.637-39.997-39.997-39.997zm199.981 0c-22.045 0-39.996 17.951-39.996 39.997v39.996c0 22.045 17.951 39.996 39.996 39.996 22.36 0 39.996-17.951 39.996-39.996v-39.996c0-22.046-17.636-39.997-39.996-39.997zm199.981 0c-22.045 0-39.996 17.951-39.996 39.997v39.996c0 22.045 17.951 39.996 39.996 39.996 22.36 0 39.996-17.951 39.996-39.996v-39.996c0-22.046-17.636-39.997-39.996-39.997zm199.981 0c-22.045 0-39.996 17.951-39.996 39.997v39.996c0 22.045 17.951 39.996 39.996 39.996 22.36 0 39.996-17.951 39.996-39.996v-39.996c0-22.046-17.636-39.997-39.996-39.997zM239.977 295.09c-22.045 0-39.996 17.951-39.996 39.996s17.951 39.996 39.996 39.996h39.996c22.045 0 39.996-17.95 39.996-39.996 0-22.045-17.95-39.996-39.996-39.996zm1399.866 0c-22.045 0-39.996 17.951-39.996 39.996s17.951 39.996 39.996 39.996h40.312c22.045 0 39.996-17.95 39.996-39.996 0-22.045-17.951-39.996-39.996-39.996zM239.977 495.07c-22.045 0-39.996 17.952-39.996 39.997 0 22.36 17.951 39.996 39.996 39.996h39.996c22.045 0 39.996-17.636 39.996-39.996 0-22.045-17.95-39.996-39.996-39.996zm1399.866 0c-22.045 0-39.996 17.952-39.996 39.997 0 22.36 17.951 39.996 39.996 39.996h40.312c22.045 0 39.996-17.636 39.996-39.996 0-22.045-17.951-39.996-39.996-39.996zM239.977 695.053c-22.045 0-39.996 17.95-39.996 39.996 0 22.36 17.951 39.996 39.996 39.996h39.996c22.045 0 39.996-17.636 39.996-39.996 0-22.045-17.95-39.996-39.996-39.996zm1399.866 0c-22.045 0-39.996 17.95-39.996 39.996 0 22.36 17.951 39.996 39.996 39.996h40.312c22.045 0 39.996-17.636 39.996-39.996 0-22.045-17.951-39.996-39.996-39.996zM239.977 895.032c-22.045 0-39.996 17.952-39.996 39.997 0 22.36 17.951 39.996 39.996 39.996h39.996c22.045 0 39.996-17.636 39.996-39.996 0-22.045-17.95-39.996-39.996-39.996zm1399.866 0c-22.045 0-39.996 17.952-39.996 39.997 0 22.36 17.951 39.996 39.996 39.996h40.312c22.045 0 39.996-17.636 39.996-39.996 0-22.045-17.951-39.996-39.996-39.996zM239.977 1095.015c-22.045 0-39.996 17.95-39.996 39.996 0 22.36 17.951 39.996 39.996 39.996h39.996c22.045 0 39.996-17.636 39.996-39.996 0-22.045-17.95-39.996-39.996-39.996zm1399.866 0c-22.045 0-39.996 17.95-39.996 39.996 0 22.36 17.951 39.996 39.996 39.996h40.312c22.045 0 39.996-17.636 39.996-39.996 0-22.045-17.951-39.996-39.996-39.996zm-1399.866 199.98c-22.045 0-39.996 17.952-39.996 39.997 0 22.36 17.951 39.996 39.996 39.996h39.996c22.045 0 39.996-17.636 39.996-39.996 0-22.045-17.95-39.996-39.996-39.996zm1399.866 0c-22.045 0-39.996 17.952-39.996 39.997 0 22.36 17.951 39.996 39.996 39.996h40.312c22.045 0 39.996-17.636 39.996-39.996 0-22.045-17.951-39.996-39.996-39.996zM239.977 1494.976c-22.045 0-39.996 17.951-39.996 39.997 0 22.36 17.951 39.996 39.996 39.996h39.996c22.045 0 39.996-17.636 39.996-39.996 0-22.046-17.95-39.997-39.996-39.997zm1399.866 0c-22.045 0-39.996 17.951-39.996 39.997 0 22.36 17.951 39.996 39.996 39.996h40.312c22.045 0 39.996-17.636 39.996-39.996 0-22.046-17.951-39.997-39.996-39.997zm-1279.877 79.993c-22.045 0-39.997 17.95-39.997 39.996v40.311c0 22.045 17.952 39.996 39.997 39.996 22.045 0 39.996-17.95 39.996-39.996v-40.311c0-22.045-17.951-39.996-39.996-39.996zm199.98 0c-22.045 0-39.996 17.95-39.996 39.996v40.311c0 22.045 17.951 39.996 39.997 39.996 22.36 0 39.996-17.95 39.996-39.996v-40.311c0-22.045-17.636-39.996-39.996-39.996zm199.981 0c-22.045 0-39.996 17.95-39.996 39.996v40.311c0 22.045 17.951 39.996 39.996 39.996 22.36 0 39.997-17.95 39.997-39.996v-40.311c0-22.045-17.636-39.996-39.997-39.996zm199.981 0c-22.045 0-39.996 17.95-39.996 39.996v40.311c0 22.045 17.951 39.996 39.996 39.996 22.36 0 39.997-17.95 39.997-39.996v-40.311c0-22.045-17.637-39.996-39.997-39.996zm199.981 0c-22.045 0-39.996 17.95-39.996 39.996v40.311c0 22.045 17.951 39.996 39.996 39.996 22.36 0 39.996-17.95 39.996-39.996v-40.311c0-22.045-17.636-39.996-39.996-39.996zm199.981 0c-22.045 0-39.996 17.95-39.996 39.996v40.311c0 22.045 17.951 39.996 39.996 39.996 22.36 0 39.996-17.95 39.996-39.996v-40.311c0-22.045-17.636-39.996-39.996-39.996zm199.981 0c-22.045 0-39.996 17.95-39.996 39.996v40.311c0 22.045 17.951 39.996 39.996 39.996 22.36 0 39.996-17.95 39.996-39.996v-40.311c0-22.045-17.636-39.996-39.996-39.996zm0 0" transform="scale(.0124)" fill="url(#f)" stroke-width="11.339" stroke-linecap="round" stroke-linejoin="round" stroke="#333"/><path d="M4.219 3.164h15.379c.41 0 .742.332.742.746v15.38c0 .41-.332.741-.742.741H4.218a.743.743 0 0 1-.745-.742V3.91c0-.414.332-.746.746-.746zm0 0" fill="url(#g)"/><path d="M4.219 3.164a.744.744 0 0 0-.746.746v.246c0-.41.332-.742.746-.742h15.379a.74.74 0 0 1 .742.742V3.91a.74.74 0 0 0-.742-.746zm0 0" fill="#fff" fill-opacity=".392"/><path d="M4.219 20.031a.74.74 0 0 1-.746-.742v-.25c0 .414.332.746.746.746h15.379a.74.74 0 0 0 .742-.746v.25a.737.737 0 0 1-.742.742zm0 0" fill-opacity=".235"/><path d="M4.219 3.094a.814.814 0 0 0-.817.816v15.38c0 .448.364.812.817.812h15.379c.449 0 .812-.364.812-.813V3.91a.813.813 0 0 0-.812-.816zm0 .14h15.379c.375 0 .672.301.672.676v15.38a.667.667 0 0 1-.672.67H4.218a.67.67 0 0 1-.675-.67V3.91c0-.375.3-.676.676-.676zm0 0" fill="#333"/></svg>
